X:1
T: Dick Gossip's
R: reel
M: 4/4
L: 1/8
K: Dmaj
|:F2 AF GFED|F2 AF GFED|~E3 F GFED|~E3 F GFED|
|F2 AF GFED|F2 AF GFED|cdef gecA|1 d2dc d2 AG:|2 d2 dc d2 ef||
|:gB (3BBB gBaB|gB (3BBB gfed|(3cBA eA fAeA|(3cBA eA gfef|
|gB (3BBB gBaB|gB (3BBB gfed|cdef gecA|1 d2dc d2 ef:|2 d2dc d2 AG|

